X:395
T:Baloo, Lammy
R:Waltz
M:3/4
L:1/8
K:D
uE2|"D"(vE2F2) "G"(GF)|"D"(E2D2)D2|"D"(E2F2) ("G"B>A)|"A"A4D2|
"D"(E2F2) "G"(GF)|"D"(E2F2) "G"(uB2|"D"A<F-F2)"A"(E>D)|"D"(D4"C"=c2)|"G"(B2A2)"D"F2|
"A"(EF)(A2"C"=c2)|"G"(B2A2) "D"(FA)|"A"A4"C"=c2|"G"(B2A2)"D"F2|"A"(EF)(uA2"G"B2|
"D"A<F-F2) "A"(E>D)|"Bm"uD4 "G"(vB2|"D"A<F-F2) "A"(E>D)|"D"D4|]
